X:1
T:Father Was Killed by the Pinkerton Men
M:3/4
L:1/8
K:Eb
 G| GGc BB B| BGE EF G| A3 Bd d| dcB cA B| G4- G2| z GG Gc B| B B2 GE E|\
 FG A3 B| ddd cB c| AF E4-| E2 z FF B| Bcd dd d| ddc F B3| Bcc cB =A|\
 BAG F4-| F2 z FF B| Bcd dF B| BB=A G F3| BBB cB B| =AGA B4-| B2 G2 G2|\
 G3 G c4| BB B2 G2| E2 E2 D4| F2 G2 A2| B4 cc| d2 c2 A2| G6| e2 e2 e2|\
 e2 B4| G2 A2 B2| d2 c4| d2 c2 B2| A4 AA| G2 A2 F2| E4 z2|
